assets/images/list-bullet-leaf.svg

<svg width="16" height="15" viewBox="0 0 16 15" fill="none" xmlns="http://www.w3.org/2000/svg">
<path d="M6.8885 6.96443C7.58423 6.87169 8.27997 6.77894 8.99801 6.75132C9.36817 6.77006 9.71604 6.72369 10.0862 6.74243C10.4564 6.76117 10.8265 6.77991 11.1316 6.82095C11.8291 6.94585 12.4615 7.09304 12.9637 7.28483C13.4659 7.47662 13.9029 7.69071 14.2526 7.86198C14.4274 7.94761 14.5148 7.99043 14.6022 8.03324C14.6896 8.07606 14.7119 8.14117 14.7119 8.14117C14.7993 8.18399 14.8216 8.24911 14.8439 8.31422C14.9108 8.50956 14.8698 8.81462 14.6093 8.9038L14.5442 8.9261C14.5442 8.9261 14.4791 8.9484 14.414 8.97069C14.3489 8.99299 14.2186 9.03759 14.0233 9.10448C13.6977 9.21596 13.2419 9.37205 12.6987 9.48531C12.1555 9.59858 11.59 9.64673 10.9594 9.71717C10.6115 9.76354 10.3064 9.7225 9.95856 9.76887C9.61069 9.81524 9.30564 9.7742 8.93547 9.75546C8.28255 9.76079 7.54222 9.72331 6.93212 9.64123C6.62707 9.60019 6.32201 9.55915 6.01696 9.51811C5.71191 9.47707 5.40686 9.43603 5.16692 9.37269C4.62193 9.26832 4.22947 9.18446 3.83701 9.1006C3.50966 8.99445 3.35713 8.97392 3.35713 8.97392C3.26971 8.93111 3.1823 8.88829 3.16001 8.82317C3.028 8.65013 3.06904 8.34508 3.24209 8.21308C3.24209 8.21308 3.41513 8.08106 3.71841 7.90446C3.84863 7.85987 4.02168 7.72787 4.28214 7.63868C4.47748 7.57179 4.73794 7.4826 4.9984 7.39341C5.56391 7.34526 6.21505 7.12229 6.8885 6.96443Z" fill="url(#paint0_linear_4154_19005)"/>
<path d="M8.27952 1.49096C8.40975 1.44637 8.49716 1.48919 8.62739 1.4446C8.6925 1.4223 8.75762 1.4 8.75762 1.4L8.82273 1.3777C8.97526 1.39822 9.17238 1.54897 9.10904 1.78891C9.10904 1.78891 9.13134 1.85402 9.08852 1.94143C9.11082 2.00655 9.068 2.09395 9.04748 2.24648C8.98414 2.48642 8.87799 2.81378 8.72902 3.22854C8.55775 3.57818 8.27855 4.03754 7.95476 4.36666C7.80401 4.56378 7.65326 4.7609 7.4151 4.91521C7.24205 5.04721 7.00389 5.20152 6.76573 5.35582C6.35452 5.64213 5.85591 5.88562 5.4224 6.10681C4.9889 6.32801 4.5108 6.41897 4.12011 6.55276C3.92477 6.61965 3.70713 6.62142 3.5769 6.66602C3.44667 6.71061 3.29414 6.69009 3.14162 6.66957C2.92398 6.67135 2.70634 6.67313 2.70634 6.67313C2.70634 6.67313 2.64123 6.69542 2.61893 6.63031C2.4441 6.54467 2.37721 6.34933 2.46285 6.17451C2.46285 6.17451 2.54848 5.99969 2.63412 5.82487C2.78487 5.62775 2.95613 5.27809 3.1497 4.99356C3.23533 4.81874 3.40838 4.68673 3.49401 4.51191C3.64476 4.31479 3.75269 4.20508 3.90344 4.00796C4.22724 3.67883 4.55104 3.34971 4.93994 2.99829C5.11299 2.86628 5.35115 2.71198 5.5242 2.57997C5.69724 2.44796 5.87029 2.31596 6.10845 2.16165C6.47684 1.96275 6.91034 1.74156 7.23591 1.63008C7.64889 1.56141 7.99676 1.51504 8.27952 1.49096Z" fill="url(#paint1_linear_4154_19005)"/>
<path d="M3.51276 10.1188C3.79552 10.0947 4.16568 10.1135 4.47073 10.1545C4.77579 10.1956 5.16825 10.2794 5.5179 10.4507C6.19489 10.7281 6.82907 11.093 7.20279 11.547C7.42221 11.7628 7.57651 12.001 7.6434 12.1963C7.7103 12.3917 7.75489 12.5219 7.75489 12.5219C7.82178 12.7173 7.73615 12.8921 7.5631 13.0241C7.5631 13.0241 7.43287 13.0687 7.23753 13.1356C7.04218 13.2025 6.75943 13.2265 6.47668 13.2506C5.91117 13.2988 5.21365 13.1739 4.60177 12.8741C4.31724 12.6806 3.98989 12.5744 3.77047 12.3586C3.48594 12.165 3.20141 11.9714 2.98199 11.7556C2.56545 11.389 2.34426 10.9554 2.34426 10.9554L2.32196 10.8903C2.25507 10.695 2.34071 10.5202 2.53605 10.4533C2.51375 10.3882 2.94725 10.167 3.51276 10.1188Z" fill="url(#paint2_linear_4154_19005)"/>
<defs>
<linearGradient id="paint0_linear_4154_19005" x1="11.7202" y1="8.45332" x2="5.22891" y2="8.00261" gradientUnits="userSpaceOnUse">
<stop stop-color="#FAD12F"/>
<stop offset="1" stop-color="#FA7E2F"/>
</linearGradient>
<linearGradient id="paint1_linear_4154_19005" x1="8.32592" y1="2.47647" x2="2.51321" y2="6.52363" gradientUnits="userSpaceOnUse">
<stop stop-color="#FAD12F"/>
<stop offset="1" stop-color="#FA7E2F"/>
</linearGradient>
<linearGradient id="paint2_linear_4154_19005" x1="6.74554" y1="12.2746" x2="2.66128" y2="10.6573" gradientUnits="userSpaceOnUse">
<stop stop-color="#FAD12F"/>
<stop offset="1" stop-color="#FA7E2F"/>
</linearGradient>
</defs>
</svg>

<svg width="16" height="15" fill="none" xmlns="http://www.w3.org/2000/svg"><path d="M6.888 6.964c.696-.092 1.392-.185 2.11-.213.37.02.718-.027 1.088-.009.37.02.74.038 1.046.079.697.125 1.33.272 1.832.464s.939.406 1.289.577l.35.171c.087.043.109.108.109.108.087.043.11.108.132.173.067.196.026.5-.235.59l-.065.022-.13.045-.39.133c-.326.112-.782.268-1.325.381-.543.114-1.109.162-1.74.232-.348.047-.653.005-1 .052-.348.046-.653.005-1.024-.014a14.976 14.976 0 0 1-2.003-.114l-.915-.123c-.305-.04-.61-.082-.85-.145-.545-.105-.938-.189-1.33-.272-.327-.107-.48-.127-.48-.127-.087-.043-.175-.086-.197-.15a.468.468 0 0 1 .082-.61s.173-.133.476-.31c.13-.044.304-.176.564-.265l.716-.246c.566-.048 1.217-.27 1.89-.429Z" fill="url(#a)"/><path d="M8.28 1.491c.13-.045.217-.002.347-.046l.13-.045.066-.022c.152.02.35.171.286.41 0 0 .022.066-.02.153.022.066-.021.153-.042.305-.063.24-.169.568-.318.983-.171.35-.45.809-.774 1.138-.151.197-.302.394-.54.548-.173.132-.411.287-.65.44-.41.287-.91.53-1.343.752-.433.221-.911.312-1.302.446-.195.067-.413.068-.543.113-.13.045-.283.024-.435.004l-.436.003s-.065.022-.087-.043a.333.333 0 0 1-.156-.455l.171-.35c.15-.197.322-.547.516-.831.085-.175.258-.307.344-.482.15-.197.259-.307.41-.504.323-.33.647-.658 1.036-1.01.173-.132.411-.286.584-.418s.346-.264.584-.418c.369-.2.802-.42 1.128-.532.413-.069.76-.115 1.044-.139Z" fill="url(#b)"/><path d="M3.513 10.119a4.78 4.78 0 0 1 .958.036 3.5 3.5 0 0 1 1.047.296c.677.277 1.311.642 1.685 1.096.22.216.374.454.44.65l.112.325c.067.195-.019.37-.192.502l-.325.112c-.196.067-.479.09-.761.115-.566.048-1.263-.077-1.875-.377-.285-.193-.612-.3-.832-.515-.284-.194-.569-.388-.788-.603a3.038 3.038 0 0 1-.638-.8l-.022-.066c-.067-.195.019-.37.214-.437-.022-.065.411-.286.977-.334Z" fill="url(#c)"/><defs><linearGradient id="a" x1="11.72" y1="8.453" x2="5.229" y2="8.003" gradientUnits="userSpaceOnUse"><stop stop-color="#FAD12F"/><stop offset="1" stop-color="#FA7E2F"/></linearGradient><linearGradient id="b" x1="8.326" y1="2.476" x2="2.513" y2="6.524" gradientUnits="userSpaceOnUse"><stop stop-color="#FAD12F"/><stop offset="1" stop-color="#FA7E2F"/></linearGradient><linearGradient id="c" x1="6.746" y1="12.275" x2="2.661" y2="10.657" gradientUnits="userSpaceOnUse"><stop stop-color="#FAD12F"/><stop offset="1" stop-color="#FA7E2F"/></linearGradient></defs></svg>
